static/img/kroki/f3232f11878965ad4d297f65432b100c.svg

<?xml version="1.0" encoding="us-ascii" standalone="no"?><svg xmlns="http://www.w3.org/2000/svg" xmlns:xlink="http://www.w3.org/1999/xlink" contentStyleType="text/css" height="645px" preserveAspectRatio="none" style="width:1090px;height:645px;" version="1.1" viewBox="0 0 1090 645" width="1090px" zoomAndPan="magnify"><defs/><g><!--class aws_vpc--><g id="elem_aws_vpc"><rect codeLine="23" fill="#3D176E" height="39.7891" id="aws_vpc" rx="2.5" ry="2.5" style="stroke:#000D19;stroke-width:0.5;" width="112" x="7" y="599.55"/><ellipse cx="22" cy="619.4445" fill="#ADD1B2" rx="11" ry="11" style="stroke:#181818;stroke-width:1.0;"/><path d="M24.9688,625.0852 Q24.3906,625.382 23.75,625.5227 Q23.1094,625.6789 22.4063,625.6789 Q19.9063,625.6789 18.5781,624.0383 Q17.2656,622.382 17.2656,619.257 Q17.2656,616.132 18.5781,614.4758 Q19.9063,612.8195 22.4063,612.8195 Q23.1094,612.8195 23.75,612.9758 Q24.4063,613.132 24.9688,613.4289 L24.9688,616.1477 Q24.3438,615.5695 23.75,615.3039 Q23.1563,615.0227 22.5313,615.0227 Q21.1875,615.0227 20.5,616.1008 Q19.8125,617.1633 19.8125,619.257 Q19.8125,621.3508 20.5,622.4289 Q21.1875,623.4914 22.5313,623.4914 Q23.1563,623.4914 23.75,623.2258 Q24.3438,622.9445 24.9688,622.3664 L24.9688,625.0852 Z " fill="#000000"/><text fill="#D9B8FF" font-family="Helvetica" font-size="17" lengthAdjust="spacing" textLength="70" x="41" y="625.3298">aws_vpc</text></g><!--class azure_network_virtual_network--><g id="elem_azure_network_virtual_network"><rect codeLine="26" fill="#3D176E" height="39.7891" id="azure_network_virtual_network" rx="2.5" ry="2.5" style="stroke:#000D19;stroke-width:0.5;" width="310" x="154" y="599.55"/><ellipse cx="169" cy="619.4445" fill="#ADD1B2" rx="11" ry="11" style="stroke:#181818;stroke-width:1.0;"/><path d="M171.9688,625.0852 Q171.3906,625.382 170.75,625.5227 Q170.1094,625.6789 169.4063,625.6789 Q166.9063,625.6789 165.5781,624.0383 Q164.2656,622.382 164.2656,619.257 Q164.2656,616.132 165.5781,614.4758 Q166.9063,612.8195 169.4063,612.8195 Q170.1094,612.8195 170.75,612.9758 Q171.4063,613.132 171.9688,613.4289 L171.9688,616.1477 Q171.3438,615.5695 170.75,615.3039 Q170.1563,615.0227 169.5313,615.0227 Q168.1875,615.0227 167.5,616.1008 Q166.8125,617.1633 166.8125,619.257 Q166.8125,621.3508 167.5,622.4289 Q168.1875,623.4914 169.5313,623.4914 Q170.1563,623.4914 170.75,623.2258 Q171.3438,622.9445 171.9688,622.3664 L171.9688,625.0852 Z " fill="#000000"/><text fill="#D9B8FF" font-family="Helvetica" font-size="17" lengthAdjust="spacing" textLength="268" x="188" y="625.3298">azure_network_virtual_network</text></g><!--class digitalocean_vpc--><g id="elem_digitalocean_vpc"><rect codeLine="29" fill="#3D176E" height="39.7891" id="digitalocean_vpc" rx="2.5" ry="2.5" style="stroke:#000D19;stroke-width:0.5;" width="180" x="499" y="599.55"/><ellipse cx="514" cy="619.4445" fill="#ADD1B2" rx="11" ry="11" style="stroke:#181818;stroke-width:1.0;"/><path d="M516.9688,625.0852 Q516.3906,625.382 515.75,625.5227 Q515.1094,625.6789 514.4063,625.6789 Q511.9063,625.6789 510.5781,624.0383 Q509.2656,622.382 509.2656,619.257 Q509.2656,616.132 510.5781,614.4758 Q511.9063,612.8195 514.4063,612.8195 Q515.1094,612.8195 515.75,612.9758 Q516.4063,613.132 516.9688,613.4289 L516.9688,616.1477 Q516.3438,615.5695 515.75,615.3039 Q515.1563,615.0227 514.5313,615.0227 Q513.1875,615.0227 512.5,616.1008 Q511.8125,617.1633 511.8125,619.257 Q511.8125,621.3508 512.5,622.4289 Q513.1875,623.4914 514.5313,623.4914 Q515.1563,623.4914 515.75,623.2258 Q516.3438,622.9445 516.9688,622.3664 L516.9688,625.0852 Z " fill="#000000"/><text fill="#D9B8FF" font-family="Helvetica" font-size="17" lengthAdjust="spacing" textLength="138" x="533" y="625.3298">digitalocean_vpc</text></g><!--class gcp_network--><g id="elem_gcp_network"><rect codeLine="32" fill="#3D176E" height="39.7891" id="gcp_network" rx="2.5" ry="2.5" style="stroke:#000D19;stroke-width:0.5;" width="149" x="713.5" y="599.55"/><ellipse cx="728.5" cy="619.4445" fill="#ADD1B2" rx="11" ry="11" style="stroke:#181818;stroke-width:1.0;"/><path d="M731.4688,625.0852 Q730.8906,625.382 730.25,625.5227 Q729.6094,625.6789 728.9063,625.6789 Q726.4063,625.6789 725.0781,624.0383 Q723.7656,622.382 723.7656,619.257 Q723.7656,616.132 725.0781,614.4758 Q726.4063,612.8195 728.9063,612.8195 Q729.6094,612.8195 730.25,612.9758 Q730.9063,613.132 731.4688,613.4289 L731.4688,616.1477 Q730.8438,615.5695 730.25,615.3039 Q729.6563,615.0227 729.0313,615.0227 Q727.6875,615.0227 727,616.1008 Q726.3125,617.1633 726.3125,619.257 Q726.3125,621.3508 727,622.4289 Q727.6875,623.4914 729.0313,623.4914 Q729.6563,623.4914 730.25,623.2258 Q730.8438,622.9445 731.4688,622.3664 L731.4688,625.0852 Z " fill="#000000"/><text fill="#D9B8FF" font-family="Helvetica" font-size="17" lengthAdjust="spacing" textLength="107" x="747.5" y="625.3298">gcp_network</text></g><!--class network--><g id="elem_network"><rect codeLine="35" fill="#3D176E" height="39.7891" id="network" rx="2.5" ry="2.5" style="stroke:#000D19;stroke-width:0.5;" width="112" x="533" y="438.76"/><ellipse cx="548" cy="458.6545" fill="#ADD1B2" rx="11" ry="11" style="stroke:#181818;stroke-width:1.0;"/><path d="M550.9688,464.2952 Q550.3906,464.592 549.75,464.7327 Q549.1094,464.8889 548.4063,464.8889 Q545.9063,464.8889 544.5781,463.2483 Q543.2656,461.592 543.2656,458.467 Q543.2656,455.342 544.5781,453.6858 Q545.9063,452.0295 548.4063,452.0295 Q549.1094,452.0295 549.75,452.1858 Q550.4063,452.342 550.9688,452.6389 L550.9688,455.3577 Q550.3438,454.7795 549.75,454.5139 Q549.1563,454.2327 548.5313,454.2327 Q547.1875,454.2327 546.5,455.3108 Q545.8125,456.3733 545.8125,458.467 Q545.8125,460.5608 546.5,461.6389 Q547.1875,462.7014 548.5313,462.7014 Q549.1563,462.7014 549.75,462.4358 Q550.3438,462.1545 550.9688,461.5764 L550.9688,464.2952 Z " fill="#000000"/><text fill="#D9B8FF" font-family="Helvetica" font-size="17" lengthAdjust="spacing" textLength="70" x="567" y="464.5398">network</text></g><!--class onprem_network--><g id="elem_onprem_network"><rect codeLine="38" fill="#3D176E" height="39.7891" id="onprem_network" rx="2.5" ry="2.5" style="stroke:#000D19;stroke-width:0.5;" width="186" x="897" y="599.55"/><ellipse cx="912" cy="619.4445" fill="#ADD1B2" rx="11" ry="11" style="stroke:#181818;stroke-width:1.0;"/><path d="M914.9688,625.0852 Q914.3906,625.382 913.75,625.5227 Q913.1094,625.6789 912.4063,625.6789 Q909.9063,625.6789 908.5781,624.0383 Q907.2656,622.382 907.2656,619.257 Q907.2656,616.132 908.5781,614.4758 Q909.9063,612.8195 912.4063,612.8195 Q913.1094,612.8195 913.75,612.9758 Q914.4063,613.132 914.9688,613.4289 L914.9688,616.1477 Q914.3438,615.5695 913.75,615.3039 Q913.1563,615.0227 912.5313,615.0227 Q911.1875,615.0227 910.5,616.1008 Q909.8125,617.1633 909.8125,619.257 Q909.8125,621.3508 910.5,622.4289 Q911.1875,623.4914 912.5313,623.4914 Q913.1563,623.4914 913.75,623.2258 Q914.3438,622.9445 914.9688,622.3664 L914.9688,625.0852 Z " fill="#000000"/><text fill="#D9B8FF" font-family="Helvetica" font-size="17" lengthAdjust="spacing" textLength="144" x="931" y="625.3298">onprem_network</text></g><!--class resource--><g id="elem_resource"><rect codeLine="41" fill="#3D176E" height="310.7578" id="resource" rx="2.5" ry="2.5" style="stroke:#000D19;stroke-width:0.5;" width="227" x="475.5" y="7"/><ellipse cx="544.25" cy="26.8945" fill="#ADD1B2" rx="11" ry="11" style="stroke:#181818;stroke-width:1.0;"/><path d="M547.2188,32.5352 Q546.6406,32.832 546,32.9727 Q545.3594,33.1289 544.6563,33.1289 Q542.1563,33.1289 540.8281,31.4883 Q539.5156,29.832 539.5156,26.707 Q539.5156,23.582 540.8281,21.9258 Q542.1563,20.2695 544.6563,20.2695 Q545.3594,20.2695 546,20.4258 Q546.6563,20.582 547.2188,20.8789 L547.2188,23.5977 Q546.5938,23.0195 546,22.7539 Q545.4063,22.4727 544.7813,22.4727 Q543.4375,22.4727 542.75,23.5508 Q542.0625,24.6133 542.0625,26.707 Q542.0625,28.8008 542.75,29.8789 Q543.4375,30.9414 544.7813,30.9414 Q545.4063,30.9414 546,30.6758 Q546.5938,30.3945 547.2188,29.8164 L547.2188,32.5352 Z " fill="#000000"/><text fill="#D9B8FF" font-family="Helvetica" font-size="17" lengthAdjust="spacing" textLength="71" x="569.75" y="32.7798">resource</text><line style="stroke:#000D19;stroke-width:0.5;" x1="476.5" x2="701.5" y1="46.7891" y2="46.7891"/><text fill="#D9B8FF" font-family="sans-serif" font-size="14" font-weight="bold" lengthAdjust="spacing" textLength="29" x="486.5" y="68.7842">age</text><text fill="#D9B8FF" font-family="sans-serif" font-size="14" lengthAdjust="spacing" textLength="66" x="515.5" y="68.7842">: duration</text><text fill="#D9B8FF" font-family="sans-serif" font-size="14" font-weight="bold" lengthAdjust="spacing" textLength="43" x="486.5" y="95.0811">atime</text><text fill="#D9B8FF" font-family="sans-serif" font-size="14" lengthAdjust="spacing" textLength="70" x="529.5" y="95.0811">: datetime</text><text fill="#D9B8FF" font-family="sans-serif" font-size="14" font-weight="bold" lengthAdjust="spacing" textLength="43" x="486.5" y="121.3779">ctime</text><text fill="#D9B8FF" font-family="sans-serif" font-size="14" lengthAdjust="spacing" textLength="70" x="529.5" y="121.3779">: datetime</text><text fill="#D9B8FF" font-family="sans-serif" font-size="14" font-weight="bold" lengthAdjust="spacing" textLength="14" x="486.5" y="147.6748">id</text><text fill="#D9B8FF" font-family="sans-serif" font-size="14" lengthAdjust="spacing" textLength="48" x="500.5" y="147.6748">: string</text><text fill="#D9B8FF" font-family="sans-serif" font-size="14" font-weight="bold" lengthAdjust="spacing" textLength="33" x="486.5" y="173.9717">kind</text><text fill="#D9B8FF" font-family="sans-serif" font-size="14" lengthAdjust="spacing" textLength="48" x="519.5" y="173.9717">: string</text><text fill="#D9B8FF" font-family="sans-serif" font-size="14" font-weight="bold" lengthAdjust="spacing" textLength="90" x="486.5" y="200.2686">last_access</text><text fill="#D9B8FF" font-family="sans-serif" font-size="14" lengthAdjust="spacing" textLength="66" x="576.5" y="200.2686">: duration</text><text fill="#D9B8FF" font-family="sans-serif" font-size="14" font-weight="bold" lengthAdjust="spacing" textLength="90" x="486.5" y="226.5654">last_update</text><text fill="#D9B8FF" font-family="sans-serif" font-size="14" lengthAdjust="spacing" textLength="66" x="576.5" y="226.5654">: duration</text><text fill="#D9B8FF" font-family="sans-serif" font-size="14" font-weight="bold" lengthAdjust="spacing" textLength="48" x="486.5" y="252.8623">mtime</text><text fill="#D9B8FF" font-family="sans-serif" font-size="14" lengthAdjust="spacing" textLength="70" x="534.5" y="252.8623">: datetime</text><text fill="#D9B8FF" font-family="sans-serif" font-size="14" font-weight="bold" lengthAdjust="spacing" textLength="43" x="486.5" y="279.1592">name</text><text fill="#D9B8FF" font-family="sans-serif" font-size="14" lengthAdjust="spacing" textLength="48" x="529.5" y="279.1592">: string</text><text fill="#D9B8FF" font-family="sans-serif" font-size="14" font-weight="bold" lengthAdjust="spacing" textLength="34" x="486.5" y="305.4561">tags</text><text fill="#D9B8FF" font-family="sans-serif" font-size="14" lengthAdjust="spacing" textLength="171" x="520.5" y="305.4561">: dictionary[string, string]</text></g><!--reverse link network to aws_vpc--><g id="link_network_aws_vpc"><path codeLine="53" d="M515.4779,481.8515 C414.3679,512.3715 220.39,570.93 119.28,601.45 " fill="none" id="network-backto-aws_vpc" style="stroke:#FFAF37;stroke-width:2.0;"/><polygon fill="none" points="532.71,476.65,513.7441,476.1075,517.2118,487.5955,532.71,476.65" style="stroke:#FFAF37;stroke-width:2.0;"/></g><!--reverse link network to azure_network_virtual_network--><g id="link_network_azure_network_virtual_network"><path codeLine="54" d="M539.2921,487.8485 C485.3621,518.4285 396.59,568.77 342.82,599.27 " fill="none" id="network-backto-azure_network_virtual_network" style="stroke:#FFAF37;stroke-width:2.0;"/><polygon fill="none" points="554.95,478.97,536.3325,482.6292,542.2516,493.0679,554.95,478.97" style="stroke:#FFAF37;stroke-width:2.0;"/></g><!--reverse link network to digitalocean_vpc--><g id="link_network_digitalocean_vpc"><path codeLine="55" d="M589,496.81 C589,527.33 589,568.66 589,599.22 " fill="none" id="network-backto-digitalocean_vpc" style="stroke:#FFAF37;stroke-width:2.0;"/><polygon fill="none" points="589,478.81,583,496.81,595,496.81,589,478.81" style="stroke:#FFAF37;stroke-width:2.0;"/></g><!--reverse link network to gcp_network--><g id="link_network_gcp_network"><path codeLine="56" d="M627.07,490.0366 C665.32,520.5566 725.61,568.66 763.91,599.22 " fill="none" id="network-backto-gcp_network" style="stroke:#FFAF37;stroke-width:2.0;"/><polygon fill="none" points="613,478.81,623.3278,494.7266,630.8122,485.3466,613,478.81" style="stroke:#FFAF37;stroke-width:2.0;"/></g><!--reverse link resource to network--><g id="link_resource_network"><path codeLine="57" d="M589,335.85 C589,384.14 589,413.37 589,438.68 " fill="none" id="resource-backto-network" style="stroke:#FFAF37;stroke-width:2.0;"/><polygon fill="none" points="589,317.85,583,335.85,595,335.85,589,317.85" style="stroke:#FFAF37;stroke-width:2.0;"/></g><!--reverse link network to onprem_network--><g id="link_network_onprem_network"><path codeLine="58" d="M654.5055,485.5974 C731.6255,516.1374 864.15,568.61 941.26,599.14 " fill="none" id="network-backto-onprem_network" style="stroke:#FFAF37;stroke-width:2.0;"/><polygon fill="none" points="637.77,478.97,652.2964,491.1759,656.7147,480.0189,637.77,478.97" style="stroke:#FFAF37;stroke-width:2.0;"/></g><!--SRC=[XPDTIyCm58Rl-oi2tWq7cw9pueqEH6z4r3kHSPQSTc5jKavED-R7VpUrTcHfdNVD-puvd-bIAnHObBmL1HOB99UubJOb41JYciXkPZQt98xI5DBJIMpUMiF_0WzGeBZ3V8si9SJ4orBBbK7dn4bWtO1SPMGhevhmJ62Sjz1mGCroSEwQcVIYOWoAKTF5HPh6P1pqw5ID9-VOmImff5zaD1gfyJH6_arriEyTyQpVKOp3eJrOnawPdHG_rC4gQo8eijDew_zPuoCefKqcpWBjgQc93DAU_hm4PJSrdKBkmZIEaT3ojiHPfokSNgXqqWlV_mKdiXwTW8sRhqifFfBagvNUAyAvGTvOMitNchY2l3s7eDAPPiYjH31na4oMVLTw96jAmg8F9dIs8ebU6mmWmy7WKgYAWBKrjSAwQ3HWhB-z9diqhMh1-QTjCd_qGzeNV2wUWvJ-nuao_3XLMSUAdA8dZu56sWLco9g8MjRNWBQlZNVyoxpvLjk-hpw7ms6xZbWzj968ZPSIsS5Uajry6wi_tlvwacy0]--></g></svg>

<svg xmlns="http://www.w3.org/2000/svg" width="1090" height="645" viewBox="0 0 1090 645"><rect width="112" height="39.789" x="7" y="599.55" fill="#3D176E" rx="2.5" ry="2.5" style="stroke:#000d19;stroke-width:.5"/><circle cx="22" cy="619.444" r="11" fill="#ADD1B2" style="stroke:#181818;stroke-width:1"/><path d="M24.969 625.085q-.578.297-1.219.438-.64.156-1.344.156-2.5 0-3.828-1.64-1.312-1.657-1.312-4.782t1.312-4.781q1.328-1.657 3.828-1.657.703 0 1.344.157.656.156 1.219.453v2.719q-.625-.579-1.219-.844-.594-.281-1.219-.281-1.343 0-2.031 1.078-.687 1.062-.687 3.156t.687 3.172q.688 1.062 2.031 1.062.625 0 1.219-.265.594-.282 1.219-.86z"/><text x="41" y="625.33" fill="#D9B8FF" font-family="Helvetica" font-size="17" textLength="70">aws_vpc</text><rect width="310" height="39.789" x="154" y="599.55" fill="#3D176E" rx="2.5" ry="2.5" style="stroke:#000d19;stroke-width:.5"/><circle cx="169" cy="619.444" r="11" fill="#ADD1B2" style="stroke:#181818;stroke-width:1"/><path d="M171.969 625.085q-.578.297-1.219.438-.64.156-1.344.156-2.5 0-3.828-1.64-1.312-1.657-1.312-4.782t1.312-4.781q1.328-1.657 3.828-1.657.703 0 1.344.157.656.156 1.219.453v2.719q-.625-.579-1.219-.844-.594-.281-1.219-.281-1.344 0-2.031 1.078-.687 1.062-.687 3.156t.687 3.172q.688 1.062 2.031 1.062.625 0 1.219-.265.594-.282 1.219-.86z"/><text x="188" y="625.33" fill="#D9B8FF" font-family="Helvetica" font-size="17" textLength="268">azure_network_virtual_network</text><rect width="180" height="39.789" x="499" y="599.55" fill="#3D176E" rx="2.5" ry="2.5" style="stroke:#000d19;stroke-width:.5"/><circle cx="514" cy="619.444" r="11" fill="#ADD1B2" style="stroke:#181818;stroke-width:1"/><path d="M516.969 625.085q-.578.297-1.219.438-.64.156-1.344.156-2.5 0-3.828-1.64-1.312-1.657-1.312-4.782t1.312-4.781q1.328-1.657 3.828-1.657.703 0 1.344.157.656.156 1.219.453v2.719q-.625-.579-1.219-.844-.594-.281-1.219-.281-1.343 0-2.031 1.078-.687 1.062-.687 3.156t.687 3.172q.688 1.062 2.031 1.062.625 0 1.219-.265.594-.282 1.219-.86z"/><text x="533" y="625.33" fill="#D9B8FF" font-family="Helvetica" font-size="17" textLength="138">digitalocean_vpc</text><rect width="149" height="39.789" x="713.5" y="599.55" fill="#3D176E" rx="2.5" ry="2.5" style="stroke:#000d19;stroke-width:.5"/><circle cx="728.5" cy="619.444" r="11" fill="#ADD1B2" style="stroke:#181818;stroke-width:1"/><path d="M731.469 625.085q-.578.297-1.219.438-.64.156-1.344.156-2.5 0-3.828-1.64-1.312-1.657-1.312-4.782t1.312-4.781q1.328-1.657 3.828-1.657.703 0 1.344.157.656.156 1.219.453v2.719q-.625-.579-1.219-.844-.594-.281-1.219-.281-1.343 0-2.031 1.078-.687 1.062-.687 3.156t.687 3.172q.688 1.062 2.031 1.062.625 0 1.219-.265.594-.282 1.219-.86z"/><text x="747.5" y="625.33" fill="#D9B8FF" font-family="Helvetica" font-size="17" textLength="107">gcp_network</text><rect width="112" height="39.789" x="533" y="438.76" fill="#3D176E" rx="2.5" ry="2.5" style="stroke:#000d19;stroke-width:.5"/><circle cx="548" cy="458.654" r="11" fill="#ADD1B2" style="stroke:#181818;stroke-width:1"/><path d="M550.969 464.295q-.578.297-1.219.438-.64.156-1.344.156-2.5 0-3.828-1.64-1.312-1.657-1.312-4.782t1.312-4.781q1.328-1.656 3.828-1.656.703 0 1.344.156.656.156 1.219.453v2.719q-.625-.579-1.219-.844-.594-.281-1.219-.281-1.343 0-2.031 1.078-.687 1.062-.687 3.156t.687 3.172q.688 1.062 2.031 1.062.625 0 1.219-.265.594-.281 1.219-.86z"/><text x="567" y="464.54" fill="#D9B8FF" font-family="Helvetica" font-size="17" textLength="70">network</text><rect width="186" height="39.789" x="897" y="599.55" fill="#3D176E" rx="2.5" ry="2.5" style="stroke:#000d19;stroke-width:.5"/><circle cx="912" cy="619.444" r="11" fill="#ADD1B2" style="stroke:#181818;stroke-width:1"/><path d="M914.969 625.085q-.578.297-1.219.438-.64.156-1.344.156-2.5 0-3.828-1.64-1.312-1.657-1.312-4.782t1.312-4.781q1.328-1.657 3.828-1.657.703 0 1.344.157.656.156 1.219.453v2.719q-.625-.579-1.219-.844-.594-.281-1.219-.281-1.343 0-2.031 1.078-.687 1.062-.687 3.156t.687 3.172q.688 1.062 2.031 1.062.625 0 1.219-.265.594-.282 1.219-.86z"/><text x="931" y="625.33" fill="#D9B8FF" font-family="Helvetica" font-size="17" textLength="144">onprem_network</text><rect width="227" height="310.758" x="475.5" y="7" fill="#3D176E" rx="2.5" ry="2.5" style="stroke:#000d19;stroke-width:.5"/><circle cx="544.25" cy="26.895" r="11" fill="#ADD1B2" style="stroke:#181818;stroke-width:1"/><path d="M547.219 32.535q-.578.297-1.219.438-.64.156-1.344.156-2.5 0-3.828-1.64-1.312-1.657-1.312-4.782t1.312-4.781q1.328-1.656 3.828-1.656.703 0 1.344.156.656.156 1.219.453v2.719q-.625-.578-1.219-.844-.594-.281-1.219-.281-1.343 0-2.031 1.078-.687 1.062-.687 3.156t.687 3.172q.688 1.062 2.031 1.062.625 0 1.219-.265.594-.281 1.219-.86z"/><text x="569.75" y="32.78" fill="#D9B8FF" font-family="Helvetica" font-size="17" textLength="71">resource</text><path d="M476.5 46.789h225" style="stroke:#000d19;stroke-width:.5"/><text x="486.5" y="68.784" fill="#D9B8FF" font-family="sans-serif" font-size="14" font-weight="bold" textLength="29">age</text><text x="515.5" y="68.784" fill="#D9B8FF" font-family="sans-serif" font-size="14" textLength="66">: duration</text><text x="486.5" y="95.081" fill="#D9B8FF" font-family="sans-serif" font-size="14" font-weight="bold" textLength="43">atime</text><text x="529.5" y="95.081" fill="#D9B8FF" font-family="sans-serif" font-size="14" textLength="70">: datetime</text><text x="486.5" y="121.378" fill="#D9B8FF" font-family="sans-serif" font-size="14" font-weight="bold" textLength="43">ctime</text><text x="529.5" y="121.378" fill="#D9B8FF" font-family="sans-serif" font-size="14" textLength="70">: datetime</text><text x="486.5" y="147.675" fill="#D9B8FF" font-family="sans-serif" font-size="14" font-weight="bold" textLength="14">id</text><text x="500.5" y="147.675" fill="#D9B8FF" font-family="sans-serif" font-size="14" textLength="48">: string</text><text x="486.5" y="173.972" fill="#D9B8FF" font-family="sans-serif" font-size="14" font-weight="bold" textLength="33">kind</text><text x="519.5" y="173.972" fill="#D9B8FF" font-family="sans-serif" font-size="14" textLength="48">: string</text><text x="486.5" y="200.269" fill="#D9B8FF" font-family="sans-serif" font-size="14" font-weight="bold" textLength="90">last_access</text><text x="576.5" y="200.269" fill="#D9B8FF" font-family="sans-serif" font-size="14" textLength="66">: duration</text><text x="486.5" y="226.565" fill="#D9B8FF" font-family="sans-serif" font-size="14" font-weight="bold" textLength="90">last_update</text><text x="576.5" y="226.565" fill="#D9B8FF" font-family="sans-serif" font-size="14" textLength="66">: duration</text><text x="486.5" y="252.862" fill="#D9B8FF" font-family="sans-serif" font-size="14" font-weight="bold" textLength="48">mtime</text><text x="534.5" y="252.862" fill="#D9B8FF" font-family="sans-serif" font-size="14" textLength="70">: datetime</text><text x="486.5" y="279.159" fill="#D9B8FF" font-family="sans-serif" font-size="14" font-weight="bold" textLength="43">name</text><text x="529.5" y="279.159" fill="#D9B8FF" font-family="sans-serif" font-size="14" textLength="48">: string</text><text x="486.5" y="305.456" fill="#D9B8FF" font-family="sans-serif" font-size="14" font-weight="bold" textLength="34">tags</text><text x="520.5" y="305.456" fill="#D9B8FF" font-family="sans-serif" font-size="14" textLength="171">: dictionary[string, string]</text><path fill="none" d="M515.478 481.852C414.368 512.371 220.39 570.93 119.28 601.45m413.43-124.8-18.966-.542 3.468 11.488z" style="stroke:#ffaf37;stroke-width:2"/><g fill="none"><path d="M539.292 487.849c-53.93 30.58-142.702 80.921-196.472 111.421" style="stroke:#ffaf37;stroke-width:2"/><path d="m554.95 478.97-18.618 3.66 5.92 10.438z" style="stroke:#ffaf37;stroke-width:2"/></g><path fill="none" d="M589 496.81v102.41m0-120.41-6 18h12zm38.07 11.227L763.91 599.22M613 478.81l10.328 15.917 7.484-9.38zm-24-142.96v102.83m0-120.83-6 18h12zm65.506 167.747c77.12 30.54 209.644 83.013 286.754 113.543M637.77 478.97l14.526 12.206 4.419-11.157z" style="stroke:#ffaf37;stroke-width:2"/></svg>
